X: 301
T:Son davalats
M:3/8
L:1/16
S:Léon Lemmet
R:Bourrée
A:Auvergne
Z:Stoney
K:G
g3fe2|d4    cd|cBAGAc|(3(BcB) G4    |(3(gag g)fe2|d4    cd|cBAGAB|1G3  G
3:||2[G2d2]  z2 A2|!
K:D
||: d2  efga|b2a2f2|a2({ga}g2)e2|f2d2A2|d2efga|b2a2f2|a2({ga}g2)e2|1d4A
2 :||2 d6    ||
W:
W: From "Falaleiro" http://home.t-online.de/home/pheld/homepage.htm

